X: 86
T: Lupang de yshu
%%abc-version 2.0
%%abcx-abcm2ps-target-version 5.9.1 (29 Sep 2008)
%%abc-creator hum2abc beta
%%abcx-conversion-date 2013/10/02 07:44:27
%%abc-edited-by Helmut Schaffrath
%%humdrum-veritas 2959523678
%%humdrum-veritas-data 911742119
%%continueall 1
%%barnumbers 0
L: 1/8
M: 2/4
K: D
B2B2 | 
B2A2 | 
e dB2 | 
A FD2 | 
F> A B d | 
A F D E | 
F4- | 
F2z2 | 
e dB2 | 
B2B,2 | 
B AF2 | 
F DB,2 | 
B,> D E F | 
D B,A,2 | 
B,4- | 
B,2z2 |]  



